X: 22497
T: Lady Dillon
R: reel
M: 4/4
K: Gmajor
G2 EF G2 G2|BA GF GA G2|AB AD A2 A2|cB GB c2 D2|
Bd B/c/d ce c/d/e|Bd B/c/d cBAG|F2 ED E2 DC|D4 D4|
GABc d2 d2|c/d/e dc c4|Bd B/c/d cBAG|AGFG A2 A2|
G2 g2 fgaf|gfed c3 B/c/|dcBA GFDF|G4 G4|
d2 BA G2 G2|FGEG D2 zG|FGEF DGFG|A2 B2 A4|
B2 BA/B/ cABG|F2 FE/F/ GE FD|c2 cB/c/ dB cA|G2 GF/G/ AF GD|
d2 dc/d/ ec dB|AGAB c3 B/G/|AFGE D2 GF|G8||
[M:6/8]
|:ded dBG|g3 f2e|ded dBG|c3 B2A|
B/c/dd ded|c'3 b2a|aba afd|g3 g3|
Bcd ded|FGA ABc|BAG FGA|D3 D3|
BGd BGd|ecg ecc'|bag f/g/af|g3 g3:|

